X: 123
T:Muiñeira da 'Polifónica'
M:6/8
L:1/8
Q:200
C:Trad.
S:Rep. Coral Polifónica de Pontevedra
R:Muiñeira
K:C
G{C}G |{A}GFD- DG{C}G| {A}GEC- CG{C}G| {A}GDE FED | EDC- CG{C}G| {A}GFD/
"F."G/ DG{C}G|
{A}GEC/"F."c/ CG{C}G | {A}GDE FED |C4 :| |: GE | CB,C DCD |EDE FEF | GFG
 ABc |G4 DE|
FGF DEF | EFE CDE | DED B,CD | G4 DE | FGF DEF | EFE CDE | DED B,CD|C4 :
||

